X:054
T:Farewell to Connacht (reel)  
B:CRE3.098 (SlÃÂÃÂÃÂÃÂ¡n le Connachta)
F:file ID: cre.3/054fare_c
N:I did some minor surgery on the original to clean up the 
playback.
R:reel
Q:180
M:C
L:1/8
K:G
"D modal"
D3D (3EFG AB|c2 (3Bcd cAGE|D2ED EGAB|cAGE C2GE|
D2ED EGAB|c2ed cAGE|D2ED (3EFG AB|cAGE D2D2:|
|:Add2 dcA2|(3Bcd ed cAA2|(3ded ce dcAB|cAGE EDD2|
Add2 dcA2|(3Bcd ed cAA2|d3e fded|1 cAGE FDD2:|\
[2 cAGE EDCE|| 

%%%

